dist/img/temp/list-bengkel.svg

<svg width="25" height="25" viewBox="0 0 25 25" fill="none" xmlns="http://www.w3.org/2000/svg">
<path d="M3.5 12.5C3.5 13.6819 3.73279 14.8522 4.18508 15.9442C4.63738 17.0361 5.30031 18.0282 6.13604 18.864C6.97177 19.6997 7.96392 20.3626 9.05585 20.8149C10.1478 21.2672 11.3181 21.5 12.5 21.5C13.6819 21.5 14.8522 21.2672 15.9442 20.8149C17.0361 20.3626 18.0282 19.6997 18.864 18.864C19.6997 18.0282 20.3626 17.0361 20.8149 15.9442C21.2672 14.8522 21.5 13.6819 21.5 12.5C21.5 11.3181 21.2672 10.1478 20.8149 9.05585C20.3626 7.96392 19.6997 6.97177 18.864 6.13604C18.0282 5.30031 17.0361 4.63738 15.9442 4.18508C14.8522 3.73279 13.6819 3.5 12.5 3.5C11.3181 3.5 10.1478 3.73279 9.05585 4.18508C7.96392 4.63738 6.97177 5.30031 6.13604 6.13604C5.30031 6.97177 4.63738 7.96392 4.18508 9.05585C3.73279 10.1478 3.5 11.3181 3.5 12.5Z" stroke="#FF8C4D" stroke-width="2" stroke-linecap="round" stroke-linejoin="round"/>
<path d="M9.5 12.5C9.5 13.2957 9.81607 14.0587 10.3787 14.6213C10.9413 15.1839 11.7044 15.5 12.5 15.5C13.2956 15.5 14.0587 15.1839 14.6213 14.6213C15.1839 14.0587 15.5 13.2957 15.5 12.5M9.5 12.5C9.5 11.7044 9.81607 10.9413 10.3787 10.3787C10.9413 9.81608 11.7044 9.50001 12.5 9.50001C13.2956 9.50001 14.0587 9.81608 14.6213 10.3787C15.1839 10.9413 15.5 11.7044 15.5 12.5M9.5 12.5H3.5M15.5 12.5H21.5M14.1 9.90001L17.5 5.10001M10.9 15.1L7.5 19.9M7.5 5.10001L10.9 9.90001M14.1 15.1L17.5 19.9" stroke="#FF8C4D" stroke-width="2" stroke-linecap="round" stroke-linejoin="round"/>
</svg>

<svg width="25" height="25" fill="none" xmlns="http://www.w3.org/2000/svg"><path d="M3.5 12.5a9 9 0 1018.001 0 9 9 0 00-18.001 0z" stroke="#FF8C4D" stroke-width="2" stroke-linecap="round" stroke-linejoin="round"/><path d="M9.5 12.5a3 3 0 106 0m-6 0a3 3 0 016 0m-6 0h-6m12 0h6m-7.4-2.6l3.4-4.8m-6.6 10l-3.4 4.8m0-14.8l3.4 4.8m3.2 5.2l3.4 4.8" stroke="#FF8C4D" stroke-width="2" stroke-linecap="round" stroke-linejoin="round"/></svg>
